X: 1
T: Gavotte
R: reel
M: 4/4
L: 1/8
K: Dmaj
"D"abaf "A7"gage|"D"d2{c'}d'2d2z2|"A7/C#"gage "D"fgfd|"A"e2{^g}a2A2z2|
"D"abaf "A7"gage|"D"d2{c'}d'2d2z2|"bm"f2dB"E7"d2B^G|"A"A2{^g}a2"A7"A2z2:|
"A7/C#"egfa "A7/E"gfed|"A7/C#"c2e2"A7"g2z2|"D"fagb "D/A"agfe|"D"d2f2"D/A"a2z2|
"G"baag "G/B"gffe|"em"e2g2"em/G"b2z2|"D/A"afcd "A7"geBc|"D"d2{c'}d'2d2z2||
|:"D"f2f2"A7/E"g2g2|"D/F#"ad'c'd'a2z2|"D/F#"d2d2"A"e2e2|"D"f/a/^g/a/ b/a/=g/f/ "A"eAcA|
"G"B2dBb2B2|"D/F#"A2dAa2A2|"A7/C#"{e}gzA2"D"{d}fzA2|"A"e2e/f/g/f/e2z2:|
|:"A"g2g/f/e/d/ czc'z|"D"d'zA zd2z2|"A"g2g/f/e/d/ czc'z|"D"d'zdz f2z2|
"G"Bzd/c/B/A/ Gzbz|"D"AzA/B/A/G/ Fzaz|"G"gzb/a/g/f/ "A7"ezc'z|"D"d'2d2D2z2:|
"D"abaf "A7"gage|"D"d2{c'}d'2d2z2|"A7/C#"gage "D"fgfd|"A"e2{^g}a2A2z2|
"D"abaf "A7"gage|"D"d2{c'}d'2d2z2|"bm"f2dB"E7"d2B^G|"A"A2{^g}a2"A7"A2z2|
"A7/C#"egfa "A7/E"gfed|"A7/C#"c2e2"A7"g2z2|"D"fagb "D/A"agfe|"D"d2f2"D/A"a2z2|
"G"baag "G/B"gffe|"em"e2g2"em/G"b2z2|"D/A"afcd "A7"geBc|"D"d2{c'}d'2d2z2||

